svgs/thin/brain-arrow-curved-right.svg

<svg xmlns="http://www.w3.org/2000/svg" viewBox="0 0 640 512"><!--! Font Awesome Pro 6.0.0-alpha3 by @fontawesome - https://fontawesome.com License - https://fontawesome.com/license (Commercial License) --><path d="M296 320V64c0-26.51 21.38-48 47.91-48c26.12 0 48.33 21.06 47.94 48.81C394.5 64.37 397.2 64 399.9 64c26.52 0 48.03 21.49 48.03 48c0 12.58-4.949 23.93-12.87 32.49c2.213-.1953 4.346-.2891 6.406-.2891c45.68 0 54.49 45.77 54.49 55.8L496 208c0 4.418 3.582 8 8 8S512 212.4 512 208V200c0-19.43-13.27-58.88-50.89-69.25C462.1 124.7 463.1 118.4 463.1 112c0-33.27-25.53-60.69-58.03-63.72c-2.734-10.96-8.326-21-16.41-29.2C377.6 6.953 360.9 0 343.9 0C319.9 0 298.1 13.26 288 32.84C277 13.26 256.1 0 232.1 0c-17.03 0-33.66 6.953-45.61 19.08C178.4 27.27 172.8 37.31 170.1 48.28C137.6 51.31 112 78.73 112 112c0 6.395 .9668 12.69 2.832 18.7C95.47 135.1 83.62 148.6 76.69 159.6C66.69 175.5 64.02 192.5 64.02 200c0 12.05 3.111 23.84 8.859 34.3C48.26 248.2 32 274.7 32 304c0 33.13 19.97 61.77 49.51 73.79c-1.791 8.488-1.973 17.14-.5078 25.89c4.402 26.3 23.5 48.58 48.88 56.77C140.9 464 152 464.9 162.9 463.1c3.014 10.46 8.539 20.07 16.3 28.1C191.9 504.4 209.7 512 228.1 512c16.74 0 32.05-6.027 43.91-16.1c2.848-2.422 3.777-6.594 2.018-9.891c-2.395-4.504-8.365-5.98-12.22-2.641C252.7 491.2 241 496 228.1 496c-28.69 0-52.88-23.45-51.86-53.69c-12.77 6.148-27.93 8.113-44.31 1.852c-14.65-5.602-26.46-17.47-32.07-32.11c-6.418-16.75-4.188-32.14 2.303-45.05C71.52 362.2 48 335.1 48 304c0-30.76 21.73-56.41 50.67-62.55C87.3 231.2 80.02 216.5 80.02 200c0-10.54 9.068-55.8 54.49-55.8c2.057 0 4.191 .0938 6.4 .2891C132.1 135.9 128 124.6 128 112c0-26.51 21.5-48 48.02-48c2.77 0 5.445 .3672 8.086 .8125C183.8 37.05 205.1 16 232.1 16C258.6 16 280 37.49 280 64v256c0 4.418 3.582 8 8 8S296 324.4 296 320zM603.3 340.7l-96-96C504.3 241.6 500.2 240 495.1 240c-2.061 0-4.139 .3984-6.119 1.219C483.9 243.7 480 249.5 480 256l-.0599 47.94c-25 .0273-72.7 .1888-94.76 .5365c-39.32 .6133-74.58 28.39-89.83 70.76c-13.25 36.8-11.84 89.42 31.86 126.7c2.967 2.531 6.668 3.832 10.39 3.832c2.742 0 5.496-.7031 7.984-2.137c5.867-3.379 8.971-10.09 7.75-16.75c-4.684-25.56 .4609-49.62 14.12-66.01c11.4-13.68 28.2-20.88 48.57-20.88h64L480 448c0 6.473 3.898 12.3 9.877 14.78C491.9 463.6 493.9 464 495.1 464c4.164 0 8.116-1.576 11.18-4.639l96.14-96.05C609.6 357.1 609.6 346.9 603.3 340.7zM496 448v-64H416c-59.96 0-88.26 51.97-78.4 105.8c-67.08-57.26-24.5-168.2 47.83-169.3C416 320 496 320 496 320V256l96 96L496 448z"/></svg>

<svg xmlns="http://www.w3.org/2000/svg" viewBox="0 0 640 512"><!-- Font Awesome Pro 6.0.0-alpha2 by @fontawesome - https://fontawesome.com License - https://fontawesome.com/license (Commercial License) --><path d="M296 320V64C296 37.492 317.385 16 343.908 16C370.023 16 392.24 37.062 391.85 64.812C394.492 64.367 397.166 64 399.936 64C426.459 64 447.961 85.492 447.961 112C447.961 124.578 443.012 135.93 435.092 144.492C437.305 144.297 439.438 144.203 441.498 144.203C487.176 144.203 495.984 189.969 495.984 200H496V208C496 212.418 499.582 216 504 216S512 212.418 512 208V200H511.984C511.984 180.566 498.732 141.117 461.113 130.75C462.986 124.719 463.961 118.41 463.961 112C463.961 78.73 438.432 51.309 405.93 48.277C403.195 37.312 397.604 27.273 389.518 19.074C377.564 6.953 360.941 0 343.908 0C319.914 0 298.963 13.258 288 32.836C277.037 13.258 256.086 0 232.094 0C215.061 0 198.436 6.953 186.482 19.078C178.396 27.273 172.807 37.312 170.072 48.277C137.568 51.309 112.041 78.73 112.041 112C112.041 118.395 113.008 124.688 114.873 130.703C95.473 135.961 83.617 148.609 76.686 159.633C66.686 175.531 64.018 192.488 64.018 200C64.018 212.047 67.129 223.836 72.877 234.297C48.26 248.203 32 274.688 32 304C32 337.133 51.973 365.766 81.514 377.785C79.723 386.273 79.541 394.922 81.006 403.672C85.408 429.977 104.508 452.254 129.889 460.445C140.91 464 152.027 464.867 162.855 463.148C165.869 473.609 171.395 483.219 179.156 491.25C191.902 504.438 209.74 512 228.092 512C244.834 512 260.143 505.875 271.996 495.805C274.844 493.383 275.775 489.309 274.016 486.012L273.934 485.859C271.539 481.355 265.65 480.031 261.793 483.371C252.74 491.203 241.016 496 228.092 496C199.398 496 175.207 472.547 176.234 442.312C163.461 448.461 148.303 450.426 131.928 444.164C117.279 438.562 105.473 426.695 99.861 412.055C93.443 395.305 95.674 379.914 102.164 367.008C71.521 362.234 48 335.969 48 304C48 273.242 69.729 247.594 98.666 241.445C87.297 231.195 80.018 216.508 80.018 200C80.018 189.465 89.086 144.203 134.508 144.203C136.564 144.203 138.699 144.297 140.908 144.492C132.988 135.93 128.041 124.578 128.041 112C128.041 85.492 149.541 64 176.064 64C178.834 64 181.51 64.367 184.15 64.812C183.76 37.051 205.992 16 232.094 16C258.617 16 280 37.492 280 64V320C280 324.418 283.582 328 288 328S296 324.418 296 320ZM603.314 340.688L507.314 244.688C504.252 241.625 500.16 240 495.996 240C493.936 240 491.857 240.398 489.877 241.219C483.898 243.695 480 249.527 480 256V304.012C454.996 304.039 407.244 304.133 385.184 304.48C345.865 305.094 310.604 332.867 295.354 375.238C282.105 412.043 283.518 464.66 327.211 501.961C330.178 504.492 333.879 505.793 337.604 505.793C340.346 505.793 343.1 505.09 345.588 503.656C351.455 500.277 354.559 493.57 353.338 486.91C348.654 461.348 353.799 437.289 367.455 420.902C378.852 407.227 395.639 400 416 400H480V448C480 454.473 483.898 460.305 489.877 462.781C491.857 463.602 493.936 464 495.996 464C500.16 464 504.252 462.375 507.314 459.312L603.314 363.312C609.562 357.066 609.562 346.934 603.314 340.688ZM496 448V384H416C356.039 384 327.738 435.969 337.6 489.793C270.523 432.531 313.098 321.605 385.434 320.477C416 320 496 320 496 320V256L592 352L496 448Z"/></svg>
